X:20020
T:Tunbridge Beauties
R:Polka
C:Trad.
O:England
Z:Paul Hardy's Session Tunebook 2015 (see www.paulhardy.net). Creative Commons cc by-nc-sa licenced.
M:2/2
L:1/4
Q:1/2=85
K:Em
B/d/|"Em"e2B>c|B/A/G/F/ EE/F/|"G"GG "Am"AB|cB/A/ "Em"BB/d/|e2 B>c|B/A/G/F/ EE/F/|"G"GG "D"AG/F/|"Em"E2 E:|
|:e/f/|"G"g2"D"d>e|d/c/B/A/ "G"G/A/B/c/|"D"dd "Am"AB|A/G/F/E/ "Bm"DE/F/|"G"GG "Am"AB|cB/A/ "Bm"Bc/d/|"Em"ef "D"g/f/d|"Em"e2e:|

